X: 269
T:Illibata Dei virgo nutrix / Ave virginum decus
N: Derived from Jos2403-Illibata_dei_virgo.krn
C: Josquin des Prez
%%abc-version 2.0
%%abcx-abcm2ps-target-version 5.9.1 (29 Sep 2008)
%%abc-creator hum2abc beta
%%abcx-conversion-date 2019/02/12 16:15:52
%%abc-edited-by Jesse Rodin
%%abc-edited-by Jesse Rodin; Victoria Chang 2011/05/10
%%abcx-initial-encoding-date 2011/08/05/
%%humdrum-veritas 1704182916
%%humdrum-veritas-data 3692918085
%%linebreak <none>
%%barnumbers 0
L: 1/4
M: 3/1
Q: 1/2=120
V: 1 clef=treble
V: 2 clef=treble-8
V: 3 clef=treble-8
V: 4 clef=treble-8
V: 5 clef=bass
K: F
[V:1] G4B2c2d4 | 
[V:2] z12 | 
[V:3] z12 | 
[V:4] z12 | 
[V:5] z12 | 
[V:1] _e2d4cBA4 | 
[V:2] z12 | 
[V:3] z12 | 
[V:4] G4B2c2d4 | 
[V:5] z12 | 
[V:1] G2B4AGF2c2- | 
[V:2] z12 | 
[V:3] z12 | 
[V:4] _e2d4cBA4 | 
[V:5] z12 | 
[V:1] cBd4cBA4 | 
[V:2] z12 | 
[V:3] z12 | 
[V:4] G2B4AGF2c2- | 
[V:5] z12 | 
[V:1] G2B4AG^F3E | 
[V:2] z12 | 
[V:3] z12 | 
[V:4] cBd4cBA4 | 
[V:5] z12 | 
[V:1] G12 | 
[V:2] z12 | 
[V:3] z12 | 
[V:4] G12 | 
[V:5] z12 | 
[V:1] z12 | 
[V:2] G4B2c2d4 | 
[V:3] z12 | 
[V:4] z12 | 
[V:5] z12 | 
[V:1] z12 | 
[V:2] _e2d4cBA4 | 
[V:3] z12 | 
[V:4] z12 | 
[V:5] G,,4B,,2C,2D,4 | 
[V:1] z12 | 
[V:2] G2B4AGF2c2- | 
[V:3] z12 | 
[V:4] z12 | 
[V:5] _E,2D,4C,B,,A,,4 | 
[V:1] z12 | 
[V:2] cBd4cBA4 | 
[V:3] z12 | 
[V:4] z12 | 
[V:5] G,,2B,,4A,,G,,F,,2C,2- | 
[V:1] z12 | 
[V:2] G2B4AG^F3E | 
[V:3] z12 | 
[V:4] z12 | 
[V:5] C,B,,D,4C,B,,A,,4 | 
[V:1] z12 | 
[V:2] G12 | 
[V:3] z12 | 
[V:4] z4z4B4 | 
[V:5] G,,8G,,4 | 
[V:1] z12 | 
[V:2] z12 | 
[V:3] z12 | 
[V:4] B2A4G2A4 | 
[V:5] D,6E,2F,4 | 
[V:1] z12 | 
[V:2] z12 | 
[V:3] z12 | 
[V:4] G3FD2E2F4 | 
[V:5] G,2B,4G,2A,4 | 
[V:1] z12 | 
[V:2] z12 | 
[V:3] z12 | 
[V:4] G2B3cd4cB | 
[V:5] G,8G,4 | 
[V:1] z12 | 
[V:2] z12 | 
[V:3] z12 | 
[V:4] A2d2c2B4AG | 
[V:5] F,4F,2G,4G,2 | 
[V:1] z12 | 
[V:2] z12 | 
[V:3] z12 | 
[V:4] F2A3G^FE^F4 | 
[V:5] A,2C3B,A,G,A,4 | 
[V:1] z12 | 
[V:2] B6G2A4 | 
[V:3] z12 | 
[V:4] G8z4 | 
[V:5] G,8z4 | 
[V:1] B4B2G2A4 | 
[V:2] G8F4 | 
[V:3] d12- | 
[V:4] z12 | 
[V:5] G,8D,4 | 
[V:1] G8F4 | 
[V:2] G8D4 | 
[V:3] d12- | 
[V:4] B6G2A4 | 
[V:5] z2G,,6D,4 | 
[V:1] G2d3cB4AG | 
[V:2] B12 | 
[V:3] d12 | 
[V:4] G4G4d3e | 
[V:5] G,,4G,8 | 
[V:1] A6F2F4 | 
[V:2] c4A4D2F2 | 
[V:3] A12- | 
[V:4] f3ec2d2A2d2 | 
[V:5] F,6D,6 | 
[V:1] z2E4F4ED | 
[V:2] E2A3GFED4 | 
[V:3] A12- | 
[V:4] e2c3BAGF2f2 | 
[V:5] A,,3B,,C,2D,3C,D,2 | 
[V:1] C2F4G2A4 | 
[V:2] z12 | 
[V:3] A12 | 
[V:4] e2d2f2edc4 | 
[V:5] A,,2D,4E,2F,4 | 
[V:1] B3AG2F2d3c | 
[V:2] B8B3A | 
[V:3] d12- | 
[V:4] z4B3AG2F2 | 
[V:5] B,,8B,,4 | 
[V:1] B2A2z4d3c | 
[V:2] G2F2d3cB2A2 | 
[V:3] d12- | 
[V:4] d3cB2A2f3e | 
[V:5] z2D,4D,2D,4 | 
[V:1] B2A4G4^F2 | 
[V:2] f3ed2d3cA2 | 
[V:3] d12 | 
[V:4] d3cB2AGA4 | 
[V:5] z2D,4G,,2D,4 | 
[V:1] G4z2G2A2F2 | 
[V:2] B4z4z4 | 
[V:3] z12 | 
[V:4] G8z4 | 
[V:5] G,,8z4 | 
[V:1] E4D4z2F2 | 
[V:2] z12 | 
[V:3] z12 | 
[V:4] z2c2d2B2A4 | 
[V:5] z12 | 
[V:1] G2G2A2G2E4 | 
[V:2] z12 | 
[V:3] z12 | 
[V:4] G4z2B2c2c2 | 
[V:5] z12 | 
[V:1] z2A4A2B2c2 | 
[V:2] z12 | 
[V:3] z12 | 
[V:4] d2c2A2d4e2 | 
[V:5] z12 | 
[V:1] d3cBAc3BAG | 
[V:2] z12 | 
[V:3] z12 | 
[V:4] f2g3fedf3_e | 
[V:5] z12 | 
[V:1] B3AGFA3GFE | 
[V:2] z12 | 
[V:3] z12 | 
[V:4] dc_e3dcBd3c | 
[V:5] z12 | 
[V:1] D2d3cBAB2c2- | 
[V:2] z12 | 
[V:3] z12 | 
[V:4] BAG2g3fd2c2 | 
[V:5] z12 | 
[V:1] cBAGA2B3AGF | 
[V:2] z12 | 
[V:3] z12 | 
[V:4] f3ec2B2_e3d | 
[V:5] z12 | 
[V:1] G2A3GG4^F2 | 
[V:2] z12 | 
[V:3] z12 | 
[V:4] cBc2d2G2A4 | 
[V:5] z12 | 
[V:1] G12 | 
[V:2] z4z4G4 | 
[V:3] z12 | 
[V:4] G12 | 
[V:5] G,,8G,,3A,, | 
[V:1] z12 | 
[V:2] G4c8 | 
[V:3] z12 | 
[V:4] z12 | 
[V:5] B,,2C,3B,,A,,G,,A,,4 | 
[V:1] z12 | 
[V:2] B4A2B3AGF | 
[V:3] z12 | 
[V:4] z12 | 
[V:5] G,,4z2G,2B,3A, | 
[V:1] z12 | 
[V:2] B3cd3ef3e | 
[V:3] z12 | 
[V:4] z12 | 
[V:5] G,3F,D,E,F,3E,D,C, | 
[V:1] z12 | 
[V:2] d2c2B2d2c4 | 
[V:3] z12 | 
[V:4] z12 | 
[V:5] B,,2F,2G,2B,4A,2 | 
[V:1] D4F4G4 | 
[V:2] z12 | 
[V:3] z12 | 
[V:4] z2B4A2B2c2 | 
[V:5] B,4z4z4 | 
[V:1] A3Bc2d4c2 | 
[V:2] z12 | 
[V:3] z12 | 
[V:4] F2f4d2_e4 | 
[V:5] z12 | 
[V:1] B2A2d3cB3A | 
[V:2] z12 | 
[V:3] z12 | 
[V:4] z2d3cB3AGF | 
[V:5] z12 | 
[V:1] GFA3GG4^F2 | 
[V:2] z12 | 
[V:3] z12 | 
[V:4] B2c3BAGA4 | 
[V:5] z12 | 
[V:1] G12 | 
[V:2] G4d4_e4 | 
[V:3] G12- | 
[V:4] G12 | 
[V:5] G,,8C,4 | 
[V:1] z4z4G4 | 
[V:2] d2g3f_e4dc | 
[V:3] G12- | 
[V:4] B6c6 | 
[V:5] B,,2_E,3D,C,4B,,A,, | 
[V:1] B6A2G4 | 
[V:2] B4B4B4 | 
[V:3] G12 | 
[V:4] d12- | 
[V:5] G,,12 | 
[V:1] F12- | 
[V:2] A4F3GA2B2 | 
[V:3] D12- | 
[V:4] d4z4F3G | 
[V:5] z12 | 
[V:1] F12- | 
[V:2] A2d3ef2F2B2 | 
[V:3] D12- | 
[V:4] A2B2A2d3ef2 | 
[V:5] z12 | 
[V:1] F12 | 
[V:2] A2d3cB2A4 | 
[V:3] D12 | 
[V:4] F2B2A2d3cA2 | 
[V:5] z12 | 
[V:1] G4z4D4 | 
[V:2] G6B3AG2- | 
[V:3] G12- | 
[V:4] B6G2G4 | 
[V:5] G,,12- | 
[V:1] _E2D4B,2C2D2 | 
[V:2] G2FED4z4 | 
[V:3] G12- | 
[V:4] z4d4_e2d2- | 
[V:5] G,,8C,2B,,2 | 
[V:1] B,4z4D4 | 
[V:2] d4_e2d4B2 | 
[V:3] G12 | 
[V:4] d2B2c2d2B4 | 
[V:5] G,,2G,2C,2B,,2G,,4 | 
[V:1] E2F3ED2C2B,2 | 
[V:2] c2d2B4z4 | 
[V:3] z12 | 
[V:4] z4d4e2f2- | 
[V:5] z12 | 
[V:1] F3GA2B4A2 | 
[V:2] z12 | 
[V:3] z12 | 
[V:4] fed2c2B2c4 | 
[V:5] z12 | 
[V:1] B4z4z4 | 
[V:2] B4A2G4^F2 | 
[V:3] z12 | 
[V:4] z12 | 
[V:5] z2D,2C,2B,,2A,,4 | 
[V:1] B4A2G4^F2 | 
[V:2] G4z4z4 | 
[V:3] z12 | 
[V:4] z2d2c2B2A4 | 
[V:5] G,,4z4z4 | 
[V:1] G4z4z4 | 
[V:2] z2G2A2B2A2d2- | 
[V:3] z12 | 
[V:4] G4z4z4 | 
[V:5] z2G,2F,2G,2A,2F,2 | 
[V:1] z2G2F2G2A2F2 | 
[V:2] d2c2z4z4 | 
[V:3] z12 | 
[V:4] z2G2d2e2f2d2- | 
[V:5] E,4z4z4 | 
[V:1] E4z4z4 | 
[V:2] z4z2d2c2B2 | 
[V:3] z12 | 
[V:4] d2^c2d4z4 | 
[V:5] z4z2D,2E,2G,2 | 
[V:1] z2A2G2F2E4 | 
[V:2] A4z4z4 | 
[V:3] z12 | 
[V:4] z2A2B2d4^c2 | 
[V:5] F,4z4z4 | 
[V:1] z12 | 
[V:2] d2f3edc_e2d2 | 
[V:3] z12 | 
[V:4] d4z4z4 | 
[V:5] z2D,2F,4G,2B,2- | 
[V:1] z4z2D2F4 | 
[V:2] c4B4z4 | 
[V:3] z12 | 
[V:4] z4d2f4d2 | 
[V:5] B,2A,2B,4z4 | 
[V:1] G2B4A2BAGF | 
[V:2] z4z4z2d2- | 
[V:3] z12 | 
[V:4] _e2d2c4B4 | 
[V:5] z12 | 
[V:1] E4D4z4 | 
[V:2] d2c2d2B2A4- | 
[V:3] z12 | 
[V:4] z12 | 
[V:5] z4z2D,4C,2 | 
[V:1] z2d4c2d2B2 | 
[V:2] A2G2A4z4 | 
[V:3] z12 | 
[V:4] z4z4z2d2- | 
[V:5] D,2B,,2A,,4z4 | 
[V:1] A4z4z4 | 
[V:2] z12 | 
[V:3] z12 | 
[V:4] d2c2d2B2A4 | 
[V:5] z4z2G,4F,2 | 
[V:1] z2G4F2G2B2 | 
[V:2] z12 | 
[V:3] z12 | 
[V:4] z4z4z2G2- | 
[V:5] G,2B,2A,4G,4 | 
[V:1] A4G2d4c2 | 
[V:2] z12 | 
[V:3] z12 | 
[V:4] G2F2G2B2A4 | 
[V:5] z12 | 
[V:1] B2A4G4^F2 | 
[V:2] z12 | 
[V:3] z12 | 
[V:4] d3cB2AGA4 | 
[V:5] z12 | 
[V:1] G4z4G4 | 
[V:2] G6B4AG | 
[V:3] z12 | 
[V:4] G8B4 | 
[V:5] G,,8G,,4 | 
[V:1] A3GA2B3GB2 | 
[V:2] F4z4G4 | 
[V:3] d12- | 
[V:4] A4F2G6 | 
[V:5] D,4z4G,,4 | 
[V:1] A2d3cB4AG | 
[V:2] A3GA2B3GB2 | 
[V:3] d12- | 
[V:4] D4z4G4 | 
[V:5] D,8G,,4 | 
[V:1] F8G4 | 
[V:2] A4z4d3e | 
[V:3] d12 | 
[V:4] A3GA2B4AG | 
[V:5] D,8G,,4 | 
[V:1] A4F2D2E4 | 
[V:2] f4d2d4^c2 | 
[V:3] A12- | 
[V:4] F4z4z4 | 
[V:5] D,8A,,4 | 
[V:1] D2F3ED4^C2 | 
[V:2] d4z4z4 | 
[V:3] A12- | 
[V:4] f4d2f2e4 | 
[V:5] D,8A,,4 | 
[V:1] D4A3Bc4 | 
[V:2] f4d2f2e4 | 
[V:3] A12 | 
[V:4] d4D4z2A2 | 
[V:5] D,8A,,4 | 
[V:1] d4A2B4AG | 
[V:2] d4z2G2d3e | 
[V:3] d12- | 
[V:4] B3AF2G4FE | 
[V:5] z2D,4G,,2B,,3C, | 
[V:1] F2B3AG4^F2 | 
[V:2] f2d4cBA4 | 
[V:3] d12- | 
[V:4] D12 | 
[V:5] D,2G,,2B,,3C,D,4 | 
[V:1] G12 ||  
[V:2] G12 ||  
[V:3] d12 ||  
[V:4] G12 ||  
[V:5] G,,12 ||  
[V:1] [M:2/1]A8 | 
[V:2] [M:2/1]d8 | 
[V:3] [M:2/1]z8 | 
[V:4] [M:2/1]z8 | 
[V:5] [M:2/1]z8 | 
[V:1] A4A4 | 
[V:2] f4f4 | 
[V:3] z8 | 
[V:4] z8 | 
[V:5] z8 | 
[V:1] B6AG | 
[V:2] g6fe | 
[V:3] z8 | 
[V:4] z8 | 
[V:5] z8 | 
[V:1] A8 | 
[V:2] f8- | 
[V:3] d8 | 
[V:4] A8 | 
[V:5] D,8 | 
[V:1] z8 | 
[V:2] f8 | 
[V:3] A8 | 
[V:4] A4A4 | 
[V:5] F,4F,4 | 
[V:1] z8 | 
[V:2] z8 | 
[V:3] d8 | 
[V:4] B6AG | 
[V:5] G,8 | 
[V:1] z4A4- | 
[V:2] z4f4- | 
[V:3] z8 | 
[V:4] A8 | 
[V:5] D,8 | 
[V:1] A4G4 | 
[V:2] f4e4 | 
[V:3] z8 | 
[V:4] z8 | 
[V:5] z8 | 
[V:1] F2D2E4 | 
[V:2] d2B2c4 | 
[V:3] z8 | 
[V:4] z8 | 
[V:5] z8 | 
[V:1] D2B4AG | 
[V:2] d8- | 
[V:3] G8 | 
[V:4] B8 | 
[V:5] G,,8 | 
[V:1] F8 | 
[V:2] d8- | 
[V:3] D8 | 
[V:4] A4A4 | 
[V:5] D,4D,4 | 
[V:1] z8 | 
[V:2] d8 | 
[V:3] G8 | 
[V:4] B6AG | 
[V:5] G,,8 | 
[V:1] F6G2 | 
[V:2] z4d4 | 
[V:3] z8 | 
[V:4] A8 | 
[V:5] D,8 | 
[V:1] A2BcB2A2- | 
[V:2] c4d4 | 
[V:3] z8 | 
[V:4] z8 | 
[V:5] z8 | 
[V:1] A2G4^F2 | 
[V:2] G2B2A4 | 
[V:3] z8 | 
[V:4] z8 | 
[V:5] z8 | 
[V:1] G8 | 
[V:2] G8 | 
[V:3] d8 | 
[V:4] z4d4 | 
[V:5] G,4G,4 | 
[V:1] z8 | 
[V:2] z8 | 
[V:3] A8 | 
[V:4] c4A4 | 
[V:5] A,2^F,4E,F, | 
[V:1] z4d4 | 
[V:2] G4G4 | 
[V:3] d8 | 
[V:4] B8 | 
[V:5] G,8 | 
[V:1] c4A4 | 
[V:2] A2^F4E^F | 
[V:3] z8 | 
[V:4] A8 | 
[V:5] z8 | 
[V:1] B8 | 
[V:2] G8 | 
[V:3] z8 | 
[V:4] z4d4 | 
[V:5] G,4G,4 | 
[V:1] A8 | 
[V:2] z8 | 
[V:3] z8 | 
[V:4] c4A4 | 
[V:5] A,2^F,4E,F, | 
[V:1] G4G4 | 
[V:2] d8- | 
[V:3] G8 | 
[V:4] B8 | 
[V:5] G,8 | 
[V:1] A2^F4EF | 
[V:2] d8- | 
[V:3] D8 | 
[V:4] A8 | 
[V:5] z8 | 
[V:1] G8 | 
[V:2] d8 | 
[V:3] G8 | 
[V:4] G8 | 
[V:5] z8 | 
[V:1] d4c4 | 
[V:2] z8 | 
[V:3] z8 | 
[V:4] z8 | 
[V:5] B,4F,4 | 
[V:1] B4A4 | 
[V:2] g4f4 | 
[V:3] z4d4 | 
[V:4] G4d2d2- | 
[V:5] G,4D,4 | 
[V:1] z8 | 
[V:2] e4d4 | 
[V:3] A4d4 | 
[V:4] d2^c2d4 | 
[V:5] z8 | 
[V:1] F4G4 | 
[V:2] z8 | 
[V:3] z8 | 
[V:4] d4z4 | 
[V:5] D,4E,4 | 
[V:1] A4B2G2- | 
[V:2] c4B4 | 
[V:3] z4G4 | 
[V:4] z4z2d2- | 
[V:5] F,4G,4 | 
[V:1] G2F2G2d2- | 
[V:2] A4G4 | 
[V:3] D4G4 | 
[V:4] d2c2B2AG | 
[V:5] z4G,,4 | 
[V:1] d2c2B2AG | 
[V:2] z4G4 | 
[V:3] z8 | 
[V:4] ^F4G4 | 
[V:5] A,,4G,,4 | 
[V:1] ^F4G2D2 | 
[V:2] A4G4 | 
[V:3] z4d4 | 
[V:4] z4B4 | 
[V:5] z8 | 
[V:1] E4D2F2 | 
[V:2] z4B4 | 
[V:3] A4d4 | 
[V:4] c4d4 | 
[V:5] z8 | 
[V:1] E4D4 | 
[V:2] c4d4 | 
[V:3] z8 | 
[V:4] z4B4 | 
[V:5] z4G,4 | 
[V:1] z2A2B2AG | 
[V:2] z4z2B2 | 
[V:3] z4G4 | 
[V:4] c4d4- | 
[V:5] A,4G,4 | 
[V:1] ^F4G4 | 
[V:2] A4G4- | 
[V:3] D4G4 | 
[V:4] d4z4 | 
[V:5] z8 | 
[V:1] G4d4- | 
[V:2] G4G4 | 
[V:3] z8 | 
[V:4] z8 | 
[V:5] z8 | 
[V:1] d4z4 | 
[V:2] d8 | 
[V:3] z4d4 | 
[V:4] G4d4- | 
[V:5] z4G,,4 | 
[V:1] z4A4 | 
[V:2] z4f4 | 
[V:3] A4d4 | 
[V:4] d4z4 | 
[V:5] D,8 | 
[V:1] B4A2d2- | 
[V:2] g4d2f2- | 
[V:3] z8 | 
[V:4] z8 | 
[V:5] G,,4D,4 | 
[V:1] dcB4AG | 
[V:2] fed4cB | 
[V:3] z4G4 | 
[V:4] z8 | 
[V:5] B,,4G,,4 | 
[V:1] ^F3EG4 | 
[V:2] A4G4 | 
[V:3] D4G4 | 
[V:4] z8 | 
[V:5] D,4G,,4 | 
[V:1] [M:3/1]G4G4G4 | 
[V:2] [M:3/1]z12 | 
[V:3] [M:3/1]z12 | 
[V:4] [M:3/1]G4G4G4 | 
[V:5] [M:3/1]G,4G,4E,4 | 
[V:1] F4A6G2 | 
[V:2] z12 | 
[V:3] d4A4d4 | 
[V:4] A8F4 | 
[V:5] D,8D,4 | 
[V:1] G4^F6E2 | 
[V:2] z12 | 
[V:3] z12 | 
[V:4] G4A8 | 
[V:5] E,4D,8 | 
[V:1] G4d6c2 | 
[V:2] B12- | 
[V:3] G4D4G4 | 
[V:4] G8z4 | 
[V:5] G,,8z4 | 
[V:1] B6A2G4 | 
[V:2] B12 | 
[V:3] z12 | 
[V:4] G8G4 | 
[V:5] G,,8G,,4 | 
[V:1] F4A6G2 | 
[V:2] A8z4 | 
[V:3] d4A4d4 | 
[V:4] A4F4G4 | 
[V:5] D,8B,,4 | 
[V:1] G4^F6E2 | 
[V:2] d6c2A4 | 
[V:3] z12 | 
[V:4] B4A8 | 
[V:5] G,,4D,8 | 
[V:1] G4B6A2 | 
[V:2] B4G6F2 | 
[V:3] G4D4G4 | 
[V:4] G8d4 | 
[V:5] G,,12 | 
[V:1] ^F12- | 
[V:2] A12 | 
[V:3] z12 | 
[V:4] A4d4z4 | 
[V:5] D,8A,,4 | 
[V:1] F12- | 
[V:2] A4d4A4 | 
[V:3] d4A4d4 | 
[V:4] z12 | 
[V:5] D,12- | 
[V:1] F12 | 
[V:2] d12 | 
[V:3] z12 | 
[V:4] z4d4A4 | 
[V:5] D,12 | 
[V:1] B4A4G4 | 
[V:2] z12 | 
[V:3] G4D4G4 | 
[V:4] d12 | 
[V:5] z12 | 
[V:1] d8c4 | 
[V:2] f12 | 
[V:3] z12 | 
[V:4] z4B4A4 | 
[V:5] B,,8F,4 | 
[V:1] B4A6G2 | 
[V:2] d8d4 | 
[V:3] d4A4d4 | 
[V:4] G4A4F4 | 
[V:5] G,4F,4D,4 | 
[V:1] G8^F4 | 
[V:2] c4d8 | 
[V:3] z12 | 
[V:4] G4A8 | 
[V:5] E,4D,8 | 
[V:1] G12 | 
[V:2] B12 | 
[V:3] G4D4G4 | 
[V:4] G12 | 
[V:5] G,,12 | 
[V:1] [M:2/1]z16 | 
[V:2] [M:2/1]G8A4A4 | 
[V:3] [M:2/1]z16 | 
[V:4] [M:2/1]z16 | 
[V:5] [M:2/1]G,8F,4F,4 | 
[V:1] G8A4d4- | 
[V:2] B8A8 | 
[V:3] z8d8 | 
[V:4] d8f4d4 | 
[V:5] G,8D,8 | 
[V:1] d4c4d6cB | 
[V:2] z12d4- | 
[V:3] A8d8 | 
[V:4] e8d8 | 
[V:5] z8D,8 | 
[V:1] A4A4B6AG | 
[V:2] d4c4B8 | 
[V:3] z16 | 
[V:4] z12d4- | 
[V:5] F,4F,4G,8 | 
[V:1] F4A4B4G4- | 
[V:2] A8G4d4- | 
[V:3] z8G8 | 
[V:4] d4c4B8 | 
[V:5] D,8z4G,,4 | 
[V:1] G4^F4G8 | 
[V:2] d8B4B4 | 
[V:3] D8G8 | 
[V:4] A8G8 | 
[V:5] D,8G,,8 | 
[V:1] z16 | 
[V:2] G4B4A4d4- | 
[V:3] z16 | 
[V:4] z16 | 
[V:5] G,8F,4D,4 | 
[V:1] G4G4A4d4- | 
[V:2] d4^c4d8 | 
[V:3] z8d8 | 
[V:4] z4g4f4d4 | 
[V:5] E,8D,8 | 
[V:1] d4c4d8 | 
[V:2] z12d4- | 
[V:3] A8d8 | 
[V:4] e8d8 | 
[V:5] z8D,8 | 
[V:1] A8B6AG | 
[V:2] d4c4B8 | 
[V:3] z16 | 
[V:4] z12d4- | 
[V:5] F,4F,4G,8 | 
[V:1] F4A4B4G4- | 
[V:2] A8G4d4- | 
[V:3] z8G8 | 
[V:4] d4c4B8 | 
[V:5] D,8z4G,,4 | 
[V:1] G4^F4G8 | 
[V:2] d8B8 | 
[V:3] D8G8 | 
[V:4] A8G8 | 
[V:5] D,8G,,8 | 
[V:1] z16 | 
[V:2] G4B4A4d4- | 
[V:3] z16 | 
[V:4] z16 | 
[V:5] G,8F,4D,4 | 
[V:1] G4G4A4d4- | 
[V:2] d4^c4d8 | 
[V:3] z8d8 | 
[V:4] z4g4f4d4 | 
[V:5] E,8D,8 | 
[V:1] d4c4d6cB | 
[V:2] z12d4- | 
[V:3] A8d8 | 
[V:4] e8d8 | 
[V:5] z8D,8 | 
[V:1] A4A4B6AG | 
[V:2] d4c4B8 | 
[V:3] z16 | 
[V:4] z12d4- | 
[V:5] F,4F,4G,8 | 
[V:1] F4A4B4G4- | 
[V:2] A8G4d4- | 
[V:3] z8G8 | 
[V:4] d4c4B8 | 
[V:5] D,8z4G,,4 | 
[V:1] G4^F4G8 | 
[V:2] d8B8 | 
[V:3] D8G8 | 
[V:4] A8G8 | 
[V:5] D,8G,,8 | 
[V:1] z16 | 
[V:2] G8A4A4 | 
[V:3] z16 | 
[V:4] z16 | 
[V:5] G,8F,4F,4 | 
[V:1] G8A4d4- | 
[V:2] B8A8 | 
[V:3] z8d8 | 
[V:4] d8f4d4 | 
[V:5] G,8D,8 | 
[V:1] d4c4d6cB | 
[V:2] z12d4- | 
[V:3] A8d8 | 
[V:4] e8d8 | 
[V:5] z8D,8 | 
[V:1] A4A4B6AG | 
[V:2] d4c4B8 | 
[V:3] z16 | 
[V:4] z12d4- | 
[V:5] F,4F,4G,8 | 
[V:1] F4A4B4G4- | 
[V:2] A8G8 | 
[V:3] z8G8 | 
[V:4] d4c4B8 | 
[V:5] D,8z4G,,4 | 
[V:1] G4^F4G4d4- | 
[V:2] z16 | 
[V:3] D8G8 | 
[V:4] A8G8 | 
[V:5] D,8G,,8 | 
[V:1] d4c4B6AG | 
[V:2] !fermata!d16- | 
[V:3] z16 | 
[V:4] B16 | 
[V:5] G,16 | 
[V:1] ^F16- | 
[V:2] d16- | 
[V:3] z8d8 | 
[V:4] A16- | 
[V:5] D,16- | 
[V:1] !fermata!F16 | 
[V:2] d16- | 
[V:3] A8d8- | 
[V:4] !fermata!A16 | 
[V:5] !fermata!D,16 | 
[V:1] G16 |]  
[V:2] d16 |]  
[V:3] d16 |]  
[V:4] G16 |]  
[V:5] G,,16 |]  



